X:1
T:Dance of the Sugar Plum Fairy
T:Dance of the Sugar Plum Fairy
T:Alto Sax / Cello Duet
T:Peter Ilyich Tchaikovsky
C:Peter Ilyich Tchaikovsky
%%score 1 2
L:1/8
Q:1/4=110
M:4/4
K:G
V:1 treble transpose=-9 nm="Alto Saxophone" snm="A. Sax."
V:2 bass nm="Violoncello" snm="Vc."
V:1
[K:E] z2 c2 z2 d2 | z2 e2 z2 ^B2 | z2 c2 z2 d2 | z2 e2 z2 ^B2 | z2 .e.c .e2 .d2 | %5
 .^B2 .c2 .=B.B .B2 | .^A.A .A2 .=A.A .A2 | .G.c.A.c .G z z2 | z2 .E.C .E2 .D2 | .A2 .G2 .e.e .e2 | %10
 .d.d .d2 .c.c .c2 | .^B.d.c.d .B2 z2 | z2 .e.c .e2 .d2 | .^B2 .c2 .=B.B .B2 | %14
 .^A.A .A2 .=A.A .A2 | .G.c.A.c .G2 z2 | z2 .c.^A .c2 .^B2 | z2 .B.G .B2 .^A2 | z2 .A.F .A2 .G2 | %19
 z2 (G/^B/d/g/) .c2 z2 | z .^A z .^B z .c z .d | z .e z (c ^B2) z2 | z2 c2 c2 .G2 | z2 ^A2 B2 G2 | %24
 z .^A z .^B z .c z .d | z .E z (C ^B,2) (3(GA)G | F.E.E.E .E.E (3(EG)F | E.D.D.D .D.D z2 | %28
 z ^A z ^B z c !>!G2 | z ^B z c z d !>!G2 | z c z d z e z e | z f z f !fermata!g2 z2 | %32
 z2 .e.c .e2 .d2 | .^B2 .c2 .=B.B .B2 | .^A.A .A2 .=A.A .A2 | .G.c.A.c .G z z2 | z2 .e.c .e2 .d2 | %37
 .A2 .G2 .e.e .e2 | .d.d .d2 .c.c .c2 | .^B.d.c.d .B2 z2 | z2 .e.c .e2 .d2 | .^B2 .c2 .=B.B .B2 | %42
 .^A.A .A2 .=A.A .A2 | .G.c.A.c .G2 z2 | z2 .c.^A .c2 .^B2 | z2 .B.G .B2 .^A2 | z2 .A.F .A2 .G2 | %47
 z2 (G/^B/d/g/) .c2 z2 |] %48
V:2
"_pizz" E,2 G,2 E,2 A,2 | E,2 ^A,2 E,2 =A,2 | E,2 G,2 E,2 A,2 | E,2 ^A,2 E,2 =A,2 | %4
 E,2 G,2 E,2 A,2 | E,2 ^A,2 E,2 B,2 | E,2 ^A,2 E,2 =A,2 | E,2 E,2 .E,2"_arco" (E,/D,/C,/B,,/ | %8
 ^A,,4) =A,,4 | G,4 F,4 | F,4 .F,2 .^A,2 | B,2 C2 .B,2 (B,/A,/G,/F,/ | E,2) .G,2 .E,2 .A,2 | %13
 .E,2 .^A,2 .E,2 .B,2 | .E,2 .^A,2 .E,2 .=A,2 | .E,2 .E,2 .E,2 (G,/F,/E,/D,/ | %16
 ^C,2) .^A,.^C .A,2 B,2 | E,2 .^G,.B, .G,2 A,2 | D,2 .F,.A, .F,2 .G,2 | %19
 .B,2 A,/F,/^D,/B,,/ .E,2 B,,2 | .E,2 .F,2 .G,2 .A,2 | B,2 G,2 F,2 (3(B,CB, | %22
 A,).G,.G,.G, .G,.G, (3(G,B,A, | G,.F,).F,.F, .F,.F, B,,2 | .E,,2 .F,,2 .G,,2 .A,,2 | %25
 B,,2 G,,2 F,,2 ((B,,2 | E,6)) A,,2 | D,6 !>!B,,2 | E,2 F,2 G,2 !>!B,,2 | F,2 G,2 A,2 !>!B,,2 | %30
 G,2 A,2 B,2 B,2 | C2 C2 !fermata!B,2 (B,/A,/G,/F,/ | E,2)"_pizz" .G,2 .E,2 .A,2 | %33
 .E,2 .^A,2 .E,2 .B,2 | .E,2 .^A,2 .E,2 .=A,2 | .E,2 .E,2 .E,,2"_arco" (E,/D,/C,/B,,/ | %36
 ^A,,2) .E,2 .=A,,2 .^D,2 | .G,2 .B,2 .F,2 .^A,2 | .F,2 .^G,2 .F,2 .^A,2 | %39
 B,2 C2 .B,2 (B,/A,/G,/F,/ | E,2) .G,2 .E,2 .A,2 | .E,2 .^A,2 .E,2 .B,2 | .E,2 .^A,2 .E,2 .=A,2 | %43
 .E,2 .E,2 .E,,2 (G,/F,/E,/D,/ | ^C,2) !>!F,4 (F,/E,/^D,/C,/ | B,,2) !>!E,4 (E,/D,/^C,/B,,/ | %46
 A,,2) !>!D,4 (D,/C,/B,,/A,,/ | .G,,2) (A,/F,/^D,/B,,/) .E,,2 z2 |] %48

